packages/components/svg/line.svg

<?xml version="1.0" encoding="UTF-8"?>
<svg width="24px" height="24px" viewBox="0 0 24 24" version="1.1" xmlns="http://www.w3.org/2000/svg" xmlns:xlink="http://www.w3.org/1999/xlink">
    <!-- Generator: Sketch 52.5 (67469) - http://www.bohemiancoding.com/sketch -->
    <title>Line</title>
    <desc>Created with Sketch.</desc>
    <g id="Icons" stroke="none" stroke-width="1" fill="none" fill-rule="evenodd">
        <g id="Line" fill="#FFFFFF">
            <path d="M5,17 L19,17 C19.5522847,17 20,17.4477153 20,18 L20,19 C20,19.5522847 19.5522847,20 19,20 L5,20 C4.44771525,20 4,19.5522847 4,19 L4,18 C4,17.4477153 4.44771525,17 5,17 Z M5,4 L14,4 C14.5522847,4 15,4.44771525 15,5 L15,6 C15,6.55228475 14.5522847,7 14,7 L5,7 C4.44771525,7 4,6.55228475 4,6 L4,5 C4,4.44771525 4.44771525,4 5,4 Z M18,4 L19,4 C19.5522847,4 20,4.44771525 20,5 L20,6 C20,6.55228475 19.5522847,7 19,7 L18,7 C17.4477153,7 17,6.55228475 17,6 L17,5 C17,4.44771525 17.4477153,4 18,4 Z M5,10.5 L19,10.5 C19.5522847,10.5 20,10.9477153 20,11.5 L20,12.5 C20,13.0522847 19.5522847,13.5 19,13.5 L5,13.5 C4.44771525,13.5 4,13.0522847 4,12.5 L4,11.5 C4,10.9477153 4.44771525,10.5 5,10.5 Z" id="Combined-Shape"></path>
        </g>
    </g>
</svg>

<svg width="24" height="24" xmlns="http://www.w3.org/2000/svg" xmlns:xlink="http://www.w3.org/1999/xlink"><defs><path d="M5 17h14a1 1 0 0 1 1 1v1a1 1 0 0 1-1 1H5a1 1 0 0 1-1-1v-1a1 1 0 0 1 1-1zM5 4h9a1 1 0 0 1 1 1v1a1 1 0 0 1-1 1H5a1 1 0 0 1-1-1V5a1 1 0 0 1 1-1zm13 0h1a1 1 0 0 1 1 1v1a1 1 0 0 1-1 1h-1a1 1 0 0 1-1-1V5a1 1 0 0 1 1-1zM5 10.5h14a1 1 0 0 1 1 1v1a1 1 0 0 1-1 1H5a1 1 0 0 1-1-1v-1a1 1 0 0 1 1-1z" id="a"/></defs><use fill-rule="nonzero" xlink:href="#a"/></svg>
